src/assets/icons/Matrix/Rotador/matrix9_o.svg

<?xml version="1.0" encoding="UTF-8"?>
<svg id="Capa_2" data-name="Capa 2" xmlns="http://www.w3.org/2000/svg" viewBox="0 0 38.75 1.67">
  <defs>
    <style>
      .cls-1 {
        fill: none;
        stroke: #000;
        stroke-linecap: round;
        stroke-linejoin: round;
        stroke-width: .05px;
      }
    </style>
  </defs>
  <g id="Capa_1-2" data-name="Capa 1">
    <g>
      <polyline class="cls-1" points="37.58 1.16 37.58 1.11 37.58 1.08 37.55 1.05 28.91 1.05 28.88 1.05 28.88 1.08 28.85 1.08 28.85 1.11 28.85 1.31 28.88 1.31 28.88 1.34 28.91 1.34 29.09 1.34 29.12 1.34 29.12 1.37 29.12 1.4 29.12 1.58 29.12 1.61 29.12 1.65 29.09 1.65 28.41 1.65 28.37 1.65 28.37 1.61 28.34 1.61 28.34 1.58 28.34 1.4 28.34 1.37 28.37 1.37 28.37 1.34 28.41 1.34 28.64 1.34 28.67 1.34 28.67 1.31 28.67 1.11 28.67 1.08 28.64 1.08 28.64 1.05 24.05 1.05"/>
      <polyline class="cls-1" points="23.03 .86 23.03 1.02 23.03 1.05 23 1.05 22.01 1.05"/>
      <polyline class="cls-1" points="21.03 .86 21.03 1.02 21 1.02 21 1.05 20.97 1.05 20.75 1.05 20.75 1.08 20.72 1.08 20.72 1.11 20.72 1.58 20.72 1.61 20.69 1.61 20.69 1.65 20.66 1.65 20.54 1.65 18.29 1.65 18.26 1.65 18.23 1.61 18.23 1.58 18.23 1.52 18.23 1.49 18.26 1.46 18.29 1.46 18.44 1.46 18.78 1.46 18.8 1.49 18.83 1.46 20.48 1.46 20.51 1.46 20.51 1.43 20.54 1.43 20.54 1.4 20.54 1.11 20.54 1.08 20.51 1.08 20.51 1.05 20.48 1.05 19.67 1.05 19.64 1.05 19.61 1.05 19.61 1.02 19.61 .93 19.61 .9 19.64 .9 19.64 .86 19.67 .86 20.63 .86"/>
      <line class="cls-1" x1="22.01" y1=".86" x2="22.64" y2=".86"/>
      <polyline class="cls-1" points="24.05 .86 24.69 .86 37.73 .86 37.73 .9 37.76 .9 37.76 .93 37.76 1.05 37.79 1.05 37.79 1.08 37.82 1.08 38.66 1.08 38.69 1.08 38.69 1.11 38.72 1.11 38.72 1.13 38.72 1.34 38.69 1.37 38.69 1.4 38.66 1.43 38.63 1.43 38.6 1.43"/>
      <polyline class="cls-1" points="37.58 1.16 37.58 1.19 37.61 1.22 37.61 1.25 37.64 1.25 38.48 1.25 38.48 1.34 38.48 1.37 38.51 1.4 38.51 1.43 38.54 1.43 38.57 1.43 38.6 1.43"/>
      <path class="cls-1" d="m21.5.43c-.04-.21-.2-.37-.4-.4-.21-.04-.41.06-.51.24-.1.18-.08.41.05.57"/>
      <path class="cls-1" d="m21.32.46c-.03-.16-.18-.28-.35-.26-.17.02-.29.16-.28.33,0,.17.15.3.31.3"/>
      <path class="cls-1" d="m21.51.43c.04.24.25.41.49.41"/>
      <path class="cls-1" d="m21.34.46c.06.32.34.56.66.56"/>
      <path class="cls-1" d="m23.51.43c-.04-.21-.2-.37-.4-.4-.21-.04-.41.06-.51.24-.1.18-.08.41.05.57"/>
      <path class="cls-1" d="m23.33.46c-.03-.16-.18-.28-.35-.26-.17.02-.29.16-.28.33,0,.17.15.3.31.3"/>
      <path class="cls-1" d="m23.55.43c.04.24.25.41.49.41"/>
      <path class="cls-1" d="m23.38.46c.06.32.34.56.66.56"/>
      <line class="cls-1" x1="3.17" y1=".86" x2="3.83" y2=".86"/>
      <polyline class="cls-1" points="5.22 .86 5.84 .86 13.34 .86 19.5 .86 19.53 .86 19.53 .9 19.55 .9 19.55 .93 19.55 1.05 19.58 1.08 19.61 1.08 20.45 1.08 20.48 1.08 20.48 1.11 20.48 1.13 20.48 1.34 20.48 1.37 20.45 1.4 20.45 1.43 20.42 1.43 20.39 1.43 20.36 1.43"/>
      <polyline class="cls-1" points="4.82 .86 4.82 1.02 4.82 1.05 4.85 1.05 4.88 1.05 5.84 1.05 10.41 1.05 10.44 1.05 10.44 1.08 10.47 1.08 10.47 1.11 10.47 1.31 10.47 1.34 10.44 1.34 10.41 1.34 10.19 1.34 10.16 1.34 10.13 1.37 10.13 1.4 10.13 1.58 10.13 1.61 10.16 1.65 10.19 1.65 10.85 1.65 10.88 1.65 10.91 1.61 10.91 1.58 10.91 1.4 10.91 1.37 10.88 1.34 10.85 1.34 10.7 1.34 10.67 1.34 10.64 1.34 10.64 1.31 10.64 1.11 10.64 1.08 10.67 1.08 10.67 1.05 10.7 1.05 19.34 1.05 19.34 1.08 19.37 1.08 19.37 1.11 19.37 1.19 19.37 1.22 19.41 1.22 19.41 1.25 19.44 1.25 20.25 1.25 20.25 1.34 20.28 1.34 20.28 1.37 20.28 1.4 20.3 1.43 20.33 1.43 20.36 1.43"/>
      <polyline class="cls-1" points="3.83 1.05 2.75 1.05 2.54 1.05 2.51 1.08 2.51 1.11 2.48 1.11 2.48 1.58 2.48 1.61 2.48 1.65 2.45 1.65 2.33 1.65 .05 1.65 .03 1.65 .03 1.61 .03 1.58 .03 1.52 .03 1.49 .03 1.46 .05 1.46 .23 1.46 .56 1.46 .59 1.49 .59 1.46 2.28 1.46 2.3 1.46 2.3 1.43 2.33 1.43 2.33 1.4 2.33 .8"/>
      <polyline class="cls-1" points="1.79 1.05 1.44 1.05 1.41 1.05 1.41 1.02 1.41 .93 1.41 .9 1.44 .9 1.44 .86 1.82 .86"/>
      <path class="cls-1" d="m3.15.84c.14-.16.16-.38.05-.57-.1-.18-.31-.28-.51-.24-.21.04-.37.2-.4.4"/>
      <path class="cls-1" d="m2.77.83c.15,0,.29-.11.31-.26.02-.15-.06-.3-.21-.35-.15-.05-.31.02-.38.15"/>
      <path class="cls-1" d="m1.78.83c.24,0,.45-.17.49-.41"/>
      <path class="cls-1" d="m1.78,1.02c.2,0,.39-.09.52-.25"/>
      <line class="cls-1" x1="2.48" y1=".83" x2="2.48" y2=".38"/>
      <line class="cls-1" x1="2.78" y1=".86" x2="2.54" y2=".86"/>
      <path class="cls-1" d="m2.48.82s.02.04.05.04"/>
      <path class="cls-1" d="m5.19.84c.14-.16.16-.38.05-.57-.1-.18-.31-.28-.51-.24-.21.04-.37.2-.4.4"/>
      <path class="cls-1" d="m4.82.83c.17,0,.3-.14.31-.3,0-.17-.12-.31-.28-.33-.16-.02-.32.09-.34.26"/>
      <path class="cls-1" d="m3.82.83c.24,0,.45-.17.49-.41"/>
      <path class="cls-1" d="m3.82,1.02c.33,0,.61-.23.66-.56"/>
    </g>
  </g>
</svg>

<?xml version="1.0" encoding="UTF-8" standalone="no"?>
<svg
   id="Capa_2"
   data-name="Capa 2"
   viewBox="0 0 20.5 1.6787905"
   version="1.1"
   sodipodi:docname="matrix9_o.svg"
   width="20.5"
   height="1.6787905"
   inkscape:version="1.3.2 (091e20e, 2023-11-25, custom)"
   xmlns:inkscape="http://www.inkscape.org/namespaces/inkscape"
   xmlns:sodipodi="http://sodipodi.sourceforge.net/DTD/sodipodi-0.dtd"
   xmlns="http://www.w3.org/2000/svg"
   xmlns:svg="http://www.w3.org/2000/svg">
  <sodipodi:namedview
     id="namedview23"
     pagecolor="#ffffff"
     bordercolor="#000000"
     borderopacity="0.25"
     inkscape:showpageshadow="2"
     inkscape:pageopacity="0.0"
     inkscape:pagecheckerboard="0"
     inkscape:deskcolor="#d1d1d1"
     showgrid="false"
     inkscape:zoom="52.877419"
     inkscape:cx="20.642082"
     inkscape:cy="0.84156906"
     inkscape:window-width="2560"
     inkscape:window-height="1369"
     inkscape:window-x="-8"
     inkscape:window-y="-8"
     inkscape:window-maximized="1"
     inkscape:current-layer="g23" />
  <defs
     id="defs1">
    <style
       id="style1">
      .cls-1 {
        fill: none;
        stroke: #000;
        stroke-linecap: round;
        stroke-linejoin: round;
        stroke-width: .05px;
      }
    </style>
  </defs>
  <g
     id="Capa_1-2"
     data-name="Capa 1"
     transform="translate(-0.005,0.00379047)">
    <g
       id="g23">
      <line
         class="cls-1"
         x1="3.1700001"
         y1="0.86000001"
         x2="3.8299999"
         y2="0.86000001"
         id="line12" />
      <polyline
         class="cls-1"
         points="5.22 .86 5.84 .86 13.34 .86 19.5 .86 19.53 .86 19.53 .9 19.55 .9 19.55 .93 19.55 1.05 19.58 1.08 19.61 1.08 20.45 1.08 20.48 1.08 20.48 1.11 20.48 1.13 20.48 1.34 20.48 1.37 20.45 1.4 20.45 1.43 20.42 1.43 20.39 1.43 20.36 1.43"
         id="polyline12" />
      <polyline
         class="cls-1"
         points="4.82 .86 4.82 1.02 4.82 1.05 4.85 1.05 4.88 1.05 5.84 1.05 10.41 1.05 10.44 1.05 10.44 1.08 10.47 1.08 10.47 1.11 10.47 1.31 10.47 1.34 10.44 1.34 10.41 1.34 10.19 1.34 10.16 1.34 10.13 1.37 10.13 1.4 10.13 1.58 10.13 1.61 10.16 1.65 10.19 1.65 10.85 1.65 10.88 1.65 10.91 1.61 10.91 1.58 10.91 1.4 10.91 1.37 10.88 1.34 10.85 1.34 10.7 1.34 10.67 1.34 10.64 1.34 10.64 1.31 10.64 1.11 10.64 1.08 10.67 1.08 10.67 1.05 10.7 1.05 19.34 1.05 19.34 1.08 19.37 1.08 19.37 1.11 19.37 1.19 19.37 1.22 19.41 1.22 19.41 1.25 19.44 1.25 20.25 1.25 20.25 1.34 20.28 1.34 20.28 1.37 20.28 1.4 20.3 1.43 20.33 1.43 20.36 1.43"
         id="polyline13" />
      <polyline
         class="cls-1"
         points="3.83 1.05 2.75 1.05 2.54 1.05 2.51 1.08 2.51 1.11 2.48 1.11 2.48 1.58 2.48 1.61 2.48 1.65 2.45 1.65 2.33 1.65 .05 1.65 .03 1.65 .03 1.61 .03 1.58 .03 1.52 .03 1.49 .03 1.46 .05 1.46 .23 1.46 .56 1.46 .59 1.49 .59 1.46 2.28 1.46 2.3 1.46 2.3 1.43 2.33 1.43 2.33 1.4 2.33 .8"
         id="polyline14" />
      <polyline
         class="cls-1"
         points="1.79 1.05 1.44 1.05 1.41 1.05 1.41 1.02 1.41 .93 1.41 .9 1.44 .9 1.44 .86 1.82 .86"
         id="polyline15" />
      <path
         class="cls-1"
         d="M 3.15,0.84 C 3.29,0.68 3.31,0.46 3.2,0.27 3.1,0.09 2.89,-0.01 2.69,0.03 2.48,0.07 2.32,0.23 2.29,0.43"
         id="path15" />
      <path
         class="cls-1"
         d="M 2.77,0.83 C 2.92,0.83 3.06,0.72 3.08,0.57 3.1,0.42 3.02,0.27 2.87,0.22 2.72,0.17 2.56,0.24 2.49,0.37"
         id="path16" />
      <path
         class="cls-1"
         d="m 1.78,0.83 c 0.24,0 0.45,-0.17 0.49,-0.41"
         id="path17" />
      <path
         class="cls-1"
         d="m 1.78,1.02 c 0.2,0 0.39,-0.09 0.52,-0.25"
         id="path18" />
      <line
         class="cls-1"
         x1="2.48"
         y1="0.82999998"
         x2="2.48"
         y2="0.38"
         id="line18" />
      <line
         class="cls-1"
         x1="2.78"
         y1="0.86000001"
         x2="2.54"
         y2="0.86000001"
         id="line19" />
      <path
         class="cls-1"
         d="m 2.48,0.82 c 0,0 0.02,0.04 0.05,0.04"
         id="path19" />
      <path
         class="cls-1"
         d="M 5.19,0.84 C 5.33,0.68 5.35,0.46 5.24,0.27 5.14,0.09 4.93,-0.01 4.73,0.03 4.52,0.07 4.36,0.23 4.33,0.43"
         id="path20" />
      <path
         class="cls-1"
         d="m 4.82,0.83 c 0.17,0 0.3,-0.14 0.31,-0.3 C 5.13,0.36 5.01,0.22 4.85,0.2 4.69,0.18 4.53,0.29 4.51,0.46"
         id="path21" />
      <path
         class="cls-1"
         d="m 3.82,0.83 c 0.24,0 0.45,-0.17 0.49,-0.41"
         id="path22" />
      <path
         class="cls-1"
         d="m 3.82,1.02 c 0.33,0 0.61,-0.23 0.66,-0.56"
         id="path23" />
    </g>
  </g>
</svg>
